X:692
T:Soho Square
C:John Walsh, 1719
L:1/4
M:2/2
S:Colin Hume's website,  colinhume.com  - chords can also be printed below the stave.
Q:1/2=112
K:F
P:A
|: c | "F"AF F/G/A/B/ | "C/E"cc cd/e/ | "Dm"f/e/d/c/ d/e/f/A/ | "C"G3 c/B/ |\
"F"Ac cf | "C"e/f/g/e/ c "F7"a | "Bb"b/a/g/f/ "C7"e/f/g/e/ | "F"f3 :|
P:B
|: a | "F"ac'- c'f | "C"e/f/g/a/ g "A7/C#"f/e/ | "Dm"de/f/ "Gm"g/f/e/d/ | "A"^c2- c "C7"=c |\
"F"AF "Gm"BG | "F/A"cA "Bb"d "F/A"c | "Gm"d/e/f "C7"f3/e/ | "F"f3 :|

